svg/fluentui-system-icons/ic_fluent_lock_closed_key_24_regular.svg

<svg width="24" height="24" viewBox="0 0 24 24" fill="none" xmlns="http://www.w3.org/2000/svg">
<path d="M16 6C16 3.79086 14.2091 2 12 2C9.79086 2 8 3.79086 8 6V8H6.25C5.00736 8 4 9.00736 4 10.25V19.75C4 20.9926 5.00736 22 6.25 22H11V21.8107C11 21.3465 11.1844 20.9014 11.5126 20.5732L11.5858 20.5H6.25C5.83579 20.5 5.5 20.1642 5.5 19.75V10.25C5.5 9.83579 5.83579 9.5 6.25 9.5H17.75C18.1642 9.5 18.5 9.83579 18.5 10.25V12.1115C18.8216 12.0385 19.1563 12 19.5 12C19.669 12 19.8358 12.0093 20 12.0275V10.25C20 9.00736 18.9926 8 17.75 8H16V6ZM13.5001 15C13.5001 14.1716 12.8286 13.5 12.0001 13.5C11.1717 13.5 10.5001 14.1716 10.5001 15C10.5001 15.8284 11.1717 16.5 12.0001 16.5C12.8286 16.5 13.5001 15.8284 13.5001 15ZM9.5 6C9.5 4.61929 10.6193 3.5 12 3.5C13.3807 3.5 14.5 4.61929 14.5 6V8H9.5V6ZM23 16.5C23 18.433 21.433 20 19.5 20H18V21C18 21.2761 17.7761 21.5 17.5 21.5H16.5V22.5C16.5 22.7761 16.2761 23 16 23H15V23.5C15 23.7761 14.7761 24 14.5 24H12.75C12.3358 24 12 23.6642 12 23.25V21.8107C12 21.6117 12.079 21.421 12.2197 21.2803L15.9697 17.5303C16.0159 17.4841 16.0666 17.4452 16.1204 17.4136C16.0419 17.1223 16 16.8161 16 16.5C16 14.567 17.567 13 19.5 13C21.433 13 23 14.567 23 16.5ZM20 17C20.5523 17 21 16.5523 21 16C21 15.4477 20.5523 15 20 15C19.4477 15 19 15.4477 19 16C19 16.5523 19.4477 17 20 17Z" fill="#212121"/>
</svg>

<svg xmlns="http://www.w3.org/2000/svg" width="24" height="24"><path d="M16 6a4 4 0 0 0-8 0v2H6.25A2.25 2.25 0 0 0 4 10.25v9.5A2.25 2.25 0 0 0 6.25 22H11v-.19c0-.463.184-.909.513-1.237l.073-.073H6.25a.75.75 0 0 1-.75-.75v-9.5a.75.75 0 0 1 .75-.75h11.5a.75.75 0 0 1 .75.75v1.861a4.513 4.513 0 0 1 1.5-.084V10.25A2.25 2.25 0 0 0 17.75 8H16V6Zm-2.5 9a1.5 1.5 0 1 0-3 0 1.5 1.5 0 0 0 3 0Zm-4-9a2.5 2.5 0 0 1 5 0v2h-5V6ZM23 16.5a3.5 3.5 0 0 1-3.5 3.5H18v1a.5.5 0 0 1-.5.5h-1v1a.5.5 0 0 1-.5.5h-1v.5a.5.5 0 0 1-.5.5h-1.75a.75.75 0 0 1-.75-.75v-1.44a.75.75 0 0 1 .22-.53l3.75-3.75a.75.75 0 0 1 .15-.116A3.5 3.5 0 1 1 23 16.5Zm-3 .5a1 1 0 1 0 0-2 1 1 0 0 0 0 2Z"/></svg>
